X:556
T:Duncan Gray 
C:Joe Buchanan's Scottish Tome - Page 141.2
I:141 2
R:Reel
Z:Carl Allison
L:1/8
M:4/4
K:G
"G"D2 G2 "D"F2 G2 | "A7"A2 B2 "D"E4 | "G"G4 "D7"A3 c | "G"B2 G2 G4 |
"G"D2 G2 "D"F2 G2 | "A7"A2 B2 "D"F4 | "G"G4 "D7"A3 c | "G"B2 G2 G2 |
"G"B2 d2 d2 cB | "Am"c2 c2 c4 | "Am"c2 B2 "A7"A2 G2 | "D7"F2 E2 "G"D4 |
"G"d3 B "C"c2 A2 | "A7"B2 G2 "D"A4 | "C"G4 "D7"A3 c | "G"B2 G2 G4 :|

